X: 05025
T: FAREWELL TO THE HOLLOW
C: Bob McQuillen 17 Feb 81
B: Bob's Note Book 5 #25
%R: waltz
Z: 2021 John Chambers <jc:trillian.mit.edu>
M: 3/4
L: 1/4
K: Em
B \
| eg>f | e3 | ce>d | c3 | B>A G/B/ | d2e | Be>g | f3 || eg>f | e3 | ce>d | c3 | B>c B/A/ | G2A | B3- | B2 B |
| cd>e | A>Bc | Bcd | B>GB | ABc | AGG>A | B>cB | AGF || G>FG | Ad>A | Be>g | f2g/a/ | b>ag | fed | e3- | e2 |]
[| F \
| GDD | GDD | Ad>c | cBA | GDD | ABc | dc>B | A3 || BFF | Bc>B | BAB | G>FE | GBG | AdA | Bd>e | edc |
| BDD | Ad>A | GBG | FB>F | E>FG | DGB | dc>B | AGF || E>FG | F3 | G>AB | A3 | BG>E | FGF | E3- | E2 |]
%%begintext align
%% You and I have bid fond "Farewell"
%% to many "hollows" in our lifetimes. This particular
%% one is for Fox Hollow, so beloved by us all.
%%endtext

%%sep 1 1 500

%%sep 1 1 500

